img/i/touch-screen.svg

<svg enable-background="new 0 0 512 512" viewBox="0 0 512 512" xmlns="http://www.w3.org/2000/svg"><path d="m391.946 106.373v299.254h-135.946-135.946v-299.254h135.946z" fill="#181818"/><path d="m391.946 405.627v60.664c0 18.835-15.291 34.126-34.126 34.126h-203.641c-18.858 0-34.126-15.291-34.126-34.126v-60.664z" fill="#269af2"/><path d="m391.946 45.709v60.664h-271.892v-60.664c0-18.824 15.267-34.126 34.126-34.126h203.642c18.834.001 34.124 15.303 34.124 34.126z" fill="#269af2"/><path d="m357.816 0h-203.632c-25.207 0-45.714 20.508-45.714 45.714v420.571c0 25.207 20.508 45.715 45.714 45.715h177.422 26.21c25.207 0 45.714-20.508 45.714-45.715v-420.571c0-25.206-20.506-45.714-45.714-45.714zm-226.179 117.956h248.725v276.087h-248.725zm22.547-94.789h203.632c12.433 0 22.547 10.115 22.547 22.547v49.074h-248.726v-49.074c0-12.432 10.114-22.547 22.547-22.547zm203.632 465.666h-203.632c-12.433 0-22.547-10.115-22.547-22.548v-49.074h248.725v49.074c.001 12.433-10.113 22.548-22.546 22.548z" fill="#11113f"/><g fill="#fff"><path d="m183.681 71.136c-6.703 0-12.158-5.454-12.158-12.157s5.454-12.158 12.158-12.158 12.157 5.454 12.157 12.158c0 6.703-5.454 12.157-12.157 12.157z"/><path d="m288.243 70.562h-64.487c-6.398 0-11.584-5.186-11.584-11.584s5.186-11.584 11.584-11.584h64.487c6.398 0 11.584 5.186 11.584 11.584s-5.186 11.584-11.584 11.584z"/><path d="m268.054 464.605h-24.108c-6.398 0-11.584-5.186-11.584-11.584s5.186-11.584 11.584-11.584h24.108c6.398 0 11.584 5.186 11.584 11.584s-5.186 11.584-11.584 11.584z"/></g></svg>

<?xml version="1.0" encoding="iso-8859-1"?>
<!-- Generator: Adobe Illustrator 19.0.0, SVG Export Plug-In . SVG Version: 6.00 Build 0)  -->
<svg version="1.1" id="Layer_1" xmlns="http://www.w3.org/2000/svg" xmlns:xlink="http://www.w3.org/1999/xlink" x="0px" y="0px"
	 viewBox="0 0 512 512" style="enable-background:new 0 0 512 512;" xml:space="preserve">
<polygon style="fill:#181818;" points="391.946,106.373 391.946,405.627 256,405.627 120.054,405.627 120.054,106.373 256,106.373 
	"/>
<g>
	<path style="fill:#269AF2;" d="M391.946,405.627v60.664c0,18.835-15.291,34.126-34.126,34.126H154.179
		c-18.858,0-34.126-15.291-34.126-34.126v-60.664H391.946z"/>
	<path style="fill:#269AF2;" d="M391.946,45.709v60.664H120.054V45.709c0-18.824,15.267-34.126,34.126-34.126h203.642
		C376.656,11.584,391.946,26.886,391.946,45.709z"/>
</g>
<path style="fill:#11113F;" d="M357.816,0H154.184c-25.207,0-45.714,20.508-45.714,45.714v420.571
	c0,25.207,20.508,45.715,45.714,45.715h177.422h26.21c25.207,0,45.714-20.508,45.714-45.715V45.714
	C403.53,20.508,383.024,0,357.816,0z M131.637,117.956h248.725v276.087H131.637V117.956z M154.184,23.167h203.632
	c12.433,0,22.547,10.115,22.547,22.547v49.074H131.637V45.714C131.637,33.282,141.751,23.167,154.184,23.167z M357.816,488.833
	H154.184c-12.433,0-22.547-10.115-22.547-22.548v-49.074h248.725v49.074C380.363,478.718,370.249,488.833,357.816,488.833z"/>
<g>
	<path style="fill:#FFFFFF;" d="M183.681,71.136c-6.703,0-12.158-5.454-12.158-12.157s5.454-12.158,12.158-12.158
		s12.157,5.454,12.157,12.158C195.838,65.682,190.384,71.136,183.681,71.136z"/>
	<path style="fill:#FFFFFF;" d="M288.243,70.562h-64.487c-6.398,0-11.584-5.186-11.584-11.584s5.186-11.584,11.584-11.584h64.487
		c6.398,0,11.584,5.186,11.584,11.584S294.641,70.562,288.243,70.562z"/>
	<path style="fill:#FFFFFF;" d="M268.054,464.605h-24.108c-6.398,0-11.584-5.186-11.584-11.584s5.186-11.584,11.584-11.584h24.108
		c6.398,0,11.584,5.186,11.584,11.584S274.452,464.605,268.054,464.605z"/>
</g>
<g>
</g>
<g>
</g>
<g>
</g>
<g>
</g>
<g>
</g>
<g>
</g>
<g>
</g>
<g>
</g>
<g>
</g>
<g>
</g>
<g>
</g>
<g>
</g>
<g>
</g>
<g>
</g>
<g>
</g>
</svg>
